X: 37674
T: Snowy-Breasted Pearl, The
R: waltz
M: 3/4
K: Dmajor
(A/B/c)|d4 dB|A3 GFE|D4 (FD)|E2 {C}(B,A,B,C)|
[F,4D4] {A}(GF)|G2A2Bc|[F4d4] (c/d/e)|d2 (cB) A2|B2 (FEFA)|B4z2||
z4(A/B/c)|d4 c/d/e|d4 (dc)(BA)|(B2D2) F/G/A|[E4A4] A/B/c|
(d2 c/d/e dB)|A3 GFE|D4 (FD)|E2 B,A,B,C|D4||

